X:1
T:Woodford
T:A minor         Hezekiah Moors, 1809
T:Transcribed from Province Harmony , 1809; Counter by B. C. Johnston, 2018.
T:Isaac Watts, 1707 (Hymn 83, Book 1)            86. 86. (C. M.)
%%score [ 1 2 3 4 ]
L:1/8
Q:1/4=100
M:3/4
K:C
V:1 treble nm="Tr." snm="Tr."
V:2 treble nm="C." snm="C."
V:3 treble-8 nm="T." snm="T."
V:4 bass nm="B." snm="B."
V:1
 A2 E2 ^G2 | A4 B2 | (c2 dc) BA | (A ^G3) E2 | A4 A2 | B4 c2 | B4 B2 | c4 e2 | e4 e2 | (e2 fe) dc | %10
w: 1. Not from the|dust af-|flic- * * tion *|grows, * Nor|trou- bles|rise by|chance; Yet|we are|born to|cares * * and *|
w: 2. As sparks break|out from|bur- * * ning *|coals, * And|still are|up- wards|borne, So|grief is|roo- ted|in * * our *|
w: 3. Yet with my|God I|leave * * my *|cause * And|trust his|pro- mised|grace; He|rules me|by his|well- * * known *|
w: 4. Not all the|pains that|e'er * * I *|bore * Shall|spoil my|fu- ture|peace, For|death and|hell can|do * * no *|
 (c B3) z2 | z6 | z2 z2 E2 | A^GAB cd | e4 cB | A2 ^G4 | A6 |] %17
w: woes; *||A|sad, * * * a *|sad in- *|he- ri-|tance.|
w: souls, *||And|man, * * * and *|man grows *|up to|mourn.|
w: laws *||Of|love, * * * of *|love and *|right- eous-|ness.|
w: more *||Than|what, * * * than *|what my *|Fa- ther|please.|
V:2
 E2 A2 B2 | A4 G2 | (E2 FE) BA | (A ^G3) c2 | A4 A2 | B4 A2 | E4 E2 | A4 B2 | A4 B2 | c4 BA | %10
w: ||||||||born to|cares and *|
w: ||||||||roo- ted|in our *|
w: ||||||||by his|well- known *|
w: ||||||||hell can|do no *|
 (A B3) z2 | z6 | z6 | z2 z2 E2 | A2 ^G2 AB | A2 B2 ^G2 | A6 |] %17
w: woes; *|||A|sad, a sad *|in- he- ri-|tance!|
w: souls, *|||And|man, and man *|grows up to|mourn.|
w: laws *|||Of|love, of love *|and right- eous-|ness.|
w: more *|||Than|what, than what *|my Fa- ther|please.|
V:3
 e2 A2 B2 | c4 d2 | (e2 fe) dc | (c B3) c2 | c4 d2 | d4 c>d | e4 e2 | c4 B2 | A4 B2 | (c2 dc) BA | %10
w: 1. Not from the|dust af-|flic- * * tion *|grows, * Nor|trou- bles|rise by *|chance; Yet|we are|born to|cares * * and *|
w: 2. As sparks break|out from|bur- * * ning *|coals, * And|still are|up- wards *|borne, So|grief is|roo- ted|in * * our *|
w: 3. Yet with my|God I|leave * * my *|cause * And|trust his|pro- mised *|grace; He|rules me|by his|well- * * known *|
w: 4. Not all the|pains that|e'er * * I *|bore * Shall|spoil my|fu- ture *|peace, For|death and|hell can|do * * no *|
 (A ^G3) z2 | z2 z2 E2 | A^GAB cd | e6- | e4 ed | c2 B4 | A6 |] %17
w: woes; *|A|sad, * * * a *|sad|* in- *|he- ri-|tance!|
w: souls, *|And|man, * * * and *|man|* grows *|up to|mourn.|
w: laws *|Of|love, * * * of *|love|* and *|right- eous-|ness.|
w: more *|Than|what, * * * than *|what|* my *|Fa- ther|please.|
V:4
 A,2 A,,2 E,2 | A,4 G,2 | C,4 D,2 | E,4 C,2 | F,4 D,2 | G,4 A,2 | E,4 E,2 | A,4 E,2 | A,,4 E,2 | %9
w: |||||||||
w: |||||||||
w: |||||||||
w: |||||||||
 A,4 D,2 | E,4 E,2 | A,^G,A,B, CB, | %12
w: |* 1.  A|sad. * * * a *|
w: |* 2. And|man, * * * and *|
w: |* 3. Of|love, * * * of *|
w: |* 4. Than|what, * * * than *|
"^___________________________________________________________________\nEdited by B. C. Johnston, 2018\n   1. Grace eighth-notes replaced by normal eighth-notes in measure 4 and 11.\n   2. Counter part written." A,6- | %13
w: sad|
w: man|
w: love|
w: what|
 A,6- | %14
w: |
w: |
w: |
w: |
"____________________________________________________________________\nEdited by B. C. Johnston, 2018\n   1. Grace eighth-notes replaced by normal eighth-notes in measure 4 and 11.\n   2. Counter part written." A,4 C,D, | %15
w: * in- *|
w: * grows *|
w: * and *|
w: * my *|
 E,2 E,4 | A,,6 |] %17
w: he- ri-|tance!|
w: up to|mourn.|
w: right- eous-|ness.|
w: Fa- ther|please.|

